X:106
T:Christ The Lord Is Risen Today (Lyra)
%%stretchlast false
M:4/4
L:1/4
K:Eb clef=C1
"^I"[E,G,B,E] [E,G,B,E] "^vi"[C,E,EG] [C,E,EG] | "^I¹"[G,,B,EB] "^ii¹"[A,,CFA]/ "^IVmaj7"[A,,CEG]/ "^V"[B,,F,DF]2 | "^iii"[G,B,B] "^vi7²"[G,CB]/ "^vii°¹"[F,A,DA]/ "^I"[E,B,EG] "^IV¹"[C,A,EA]/ "^I²"[B,,B,EG]/ | "^ii7¹"[A,,CEF] "^V"[B,,B,DF] "^I"[E,G,E]2 | [E,G,B,E] [E,G,B,E] "^vi"[C,E,EG] [C,E,EG] | "^I¹"[G,,B,EB] "^ii¹"[A,,CFA]/ "^IVmaj7"[A,,CEG]/ "^V"[B,,F,DF]2 | "^iii"[G,B,B] "^vi7²"[G,CB]/ "^vii°¹"[F,A,DA]/ "^I"[E,B,EG] "^IV¹"[C,A,EA]/ "^I²"[B,,B,EG]/ | "^ii7¹"[A,,CEF] "^V"[B,,B,DF] "^I"[E,G,E]2 | "^vi"[C,E,EG] [C,E,EG] "^v"[B,,F,_DB] [B,,G,_DB] | "^vi+"[A,,A,Cc]/ [A,,A,CB]/ "^ii"[F,,A,CA]/ [F,,A,CG]/ "^V"[B,,B,DF]2 | "^I"[E,B,EG]3/2 "^V¹"[D,B,F]/ "^I"[E,B,EG] "^♭v°¹"[C,E,E=A] | "^V"[B,,F,DB]3/2 "^I²"[B,,G,EB]/ "^V"[B,DB] "^♯iii°"[A,B,DB] | "^I¹"[G,B,E] [G,B,E]/ "^i"[F,A,B,E]/ "^I"[E,G,B,G] "^vi"[C,E,EG] | "^I¹"[G,,B,EB] "^ii¹"[A,,CFA]/ "^IVmaj7"[A,,CEG]/ "^V"[B,,F,DF]2 | "^I¹"[G,,E,B,B] "^vi7²"[G,,E,CB]/ "^vii°¹"[F,,F,DA]/ "^I"[E,,G,B,G] "^i"[F,,E,EA]/ "^I¹"[G,,E,EG]/ | "^i"[A,,F,EF] "^V"[B,,F,DF] "^I"[E,,G,B,E]2 |]
